X:45
T: O'Brien's
C: Mike Rafferty / Mary McDonagh Decker
Z: B.Black
R: jig
M: 6/8
L: 1/8
K: Dmix
D | F3 DFA | dAF AFD | E3 CEG | cGE GEC |
F3 DFA | dAF AFD | GFG EFG | AFD D2 :|
e | f2 d d^cd | afd def | e2 c cBc | gec ceg |
|1 f2 d d^cd | afd def | gfg efg | afd d2 :|
|2 agf gfe | fed ^cAF | GFG EFG | AFD D2 ||

